X: 11
T:3 Case knifes
M:6/4
L:1/4
S:Wright 1713
K:G
ga/g/fg/f/ e/f/g/e/|gd2fed|cd/c/B c/B/ G/A/B/c/|AG2BAG||
G/A/B/c/dGF2|EA2GFE/D/|G/A/B/c/dGF2|DG2BAG||
